X: 4502
T: Bonny North Tyne
R: waltz
M: 3/4
K: Gmajor
|:G/B/d|b2 g2 d2|G2 B2 g2|f/g/f e2 c2|A3 B AG|
F2 A2 c2|e/f/e d2 G>d|B6|B4 G/B/d|
b2 g2 d2|G2 B2 g2|f/g/f e2 c2|A3 B AG|
F2 A2 d2|e/f/e d2 fa|g3 f ga|g4:|
|:Bd|G2 G2 Bd|G2 G2 Bg|f/g/f e2 c2|A4 Ac|
F2 F2 Ac|D2 F2 A>f|e2 d2 c>d|B3 A Bd|
G2 G2 Bd|G2 B2 g2|f/g/f e2 c2|A3 B AG|
F2 A2 d2|e/f/e d2 fa|g3 f ga|g4:|

